icon-svg/wall-shade.svg

<?xml version="1.0" encoding="UTF-8"?>
<svg width="32px" height="32px" viewBox="0 0 32 32" fill="#44739e" version="1.1" xmlns="http://www.w3.org/2000/svg" xmlns:xlink="http://www.w3.org/1999/xlink">
            <path d="M21.8652,7.6943 C20.2932,8.1013 17.7112,8.1013 16.1372,7.6943 C14.5862,7.2933 14.6342,6.6543 16.2052,6.2673 C17.7562,5.8853 20.2392,5.8853 21.7922,6.2673 C23.3652,6.6543 23.4152,7.2933 21.8652,7.6943 M27.9512,14.7523 L25.2522,5.6633 L25.2192,5.5693 C24.9682,4.9983 23.7432,4.4563 21.5522,4.1653 C19.8882,3.9453 18.1972,3.9443 16.5332,4.1663 C14.3452,4.4563 13.1232,4.9983 12.8752,5.5693 L12.8262,5.7163 L10.0522,14.7483 C10.0112,14.8763 9.9872,15.0123 10.0072,15.1453 C10.2302,16.6193 12.9032,17.8083 17.7862,17.9773 C17.1282,20.2953 14.9972,22.0003 12.4702,22.0003 C11.1492,22.0003 9.9352,21.5323 8.9822,20.7563 C8.9432,19.3243 8.7992,17.9333 8.5332,16.8443 C8.2752,15.7923 7.9562,15.1953 7.6262,15.0413 C7.5712,15.0123 7.5122,15.0003 7.4542,15.0003 L5.5482,15.0003 C5.4892,15.0003 5.4342,15.0123 5.3762,15.0413 C5.0322,15.1993 4.7022,15.8443 4.4412,16.9623 C3.8532,19.4853 3.8532,23.5233 4.4412,26.0423 C4.7022,27.1593 5.0322,27.8003 5.3762,27.9593 C5.4342,27.9883 5.4892,28.0003 5.5482,28.0003 L7.4542,28.0003 C7.5122,28.0003 7.5712,27.9883 7.6262,27.9593 C7.9562,27.8043 8.2752,27.2083 8.5332,26.1513 C8.7442,25.2883 8.8772,24.2303 8.9452,23.1193 C9.9982,23.6793 11.1972,24.0003 12.4702,24.0003 C16.1022,24.0003 19.1422,21.4153 19.8462,17.9883 C24.9692,17.8673 27.7702,16.6523 27.9932,15.1403 C28.0122,15.0103 27.9882,14.8783 27.9512,14.7523"></path>
</svg>

<svg xmlns="http://www.w3.org/2000/svg" fill="#44739e" viewBox="0 0 24 24"><path d="M21.8652 7.6943c-1.572.407-4.154.407-5.728 0-1.551-.401-1.503-1.04.068-1.427 1.551-.382 4.034-.382 5.587 0 1.573.387 1.623 1.026.073 1.427m6.086 7.058-2.699-9.089-.033-.094c-.251-.571-1.476-1.113-3.667-1.404-1.664-.22-3.355-.221-5.019.001-2.188.29-3.41.832-3.658 1.403l-.049.147-2.774 9.032c-.041.128-.065.264-.045.397.223 1.474 2.896 2.663 7.779 2.832-.658 2.318-2.789 4.023-5.316 4.023-1.321 0-2.535-.468-3.488-1.244-.039-1.432-.183-2.823-.449-3.912-.258-1.052-.577-1.649-.907-1.803a.366.366 0 0 0-.172-.041h-1.906c-.059 0-.114.012-.172.041-.344.158-.674.803-.935 1.921-.588 2.523-.588 6.561 0 9.08.261 1.117.591 1.758.935 1.917.058.029.113.041.172.041h1.906c.058 0 .117-.012.172-.041.33-.155.649-.751.907-1.808.211-.863.344-1.921.412-3.032 1.053.56 2.252.881 3.525.881 3.632 0 6.672-2.585 7.376-6.012 5.123-.121 7.924-1.336 8.147-2.848.019-.13-.005-.262-.042-.388"/></svg>
